;FLAVOR:UltiGCode
;TIME:10636
;MATERIAL:12388
;MATERIAL2:0
;NOZZLE_DIAMETER:0.460000
;NOZZLE_DIAMETER2:0.460000

;Layer count: 78
;LAYER:0
M107
G0 F9000 X123.106 Y89.679 Z0.300
;TYPE:SKIRT
G1 F1200 X123.716 Y93.468 E0.51810
G1 X123.765 Y93.683 E0.54787
G1 X123.800 Y93.794 E0.56358
G1 X123.844 Y93.900 E0.57908
G1 X123.879 Y93.969 E0.58952
G1 X123.941 Y94.069 E0.60541
G1 X124.015 Y94.167 E0.62198
G1 X124.181 Y94.355 E0.65584
G1 X124.217 Y94.391 E0.66271
G1 X124.313 Y94.478 E0.68021
G1 X124.413 Y94.562 E0.69784
G1 X124.565 Y94.678 E0.72365
G1 X124.729 Y94.793 E0.75069
G1 X124.942 Y94.929 E0.78481
G1 X125.207 Y95.082 E0.82612
G1 X125.480 Y95.225 E0.86772
G1 X125.788 Y95.371 E0.91374
G1 X126.160 Y95.530 E0.96835
G1 X126.582 Y95.692 E1.02937
G1 X127.120 Y95.874 E1.10605
G1 X127.662 Y96.032 E1.18226
G1 X128.368 Y96.211 E1.28059
G1 X129.177 Y96.381 E1.39219
G1 X130.092 Y96.535 E1.51745
G1 X131.122 Y96.667 E1.65764
G1 X132.321 Y96.773 E1.82013
G1 X133.467 Y96.830 E1.97504
G1 X132.847 Y96.123 E2.10198
G1 X132.128 Y95.372 E2.24234
G1 X131.377 Y94.653 E2.38270
G1 X130.564 Y93.940 E2.52868
G1 X129.745 Y93.282 E2.67051
G1 X128.894 Y92.658 E2.81297
G1 X128.017 Y92.073 E2.95529
G1 X127.111 Y91.523 E3.09837
G1 X126.183 Y91.014 E3.24126
G1 X125.240 Y90.548 E3.38326
G1 X124.268 Y90.121 E3.52659
G1 X123.290 Y89.741 E3.66823
G1 X123.106 Y89.679 E3.69444
G0 F9000 X122.543 Y89.012
G1 F1200 X123.271 Y93.536 E4.31304
G1 X123.333 Y93.810 E4.35097
G1 X123.379 Y93.955 E4.37150
G1 X123.428 Y94.075 E4.38900
G1 X123.493 Y94.200 E4.40802
G1 X123.564 Y94.315 E4.42627
G1 X123.662 Y94.447 E4.44846
G1 X123.870 Y94.682 E4.49083
G1 X123.903 Y94.715 E4.49713
G1 X124.014 Y94.815 E4.51730
G1 X124.145 Y94.924 E4.54030
G1 X124.288 Y95.034 E4.56466
G1 X124.468 Y95.160 E4.59432
G1 X124.720 Y95.320 E4.63462
G1 X124.994 Y95.479 E4.67739
G1 X125.259 Y95.618 E4.71778
G1 X125.610 Y95.785 E4.77026
G1 X125.989 Y95.946 E4.82585
G1 X126.446 Y96.121 E4.89191
G1 X126.982 Y96.302 E4.96829
G1 X127.560 Y96.471 E5.04958
G1 X128.240 Y96.643 E5.14428
G1 X129.112 Y96.827 E5.26459
G1 X130.038 Y96.982 E5.39134
G1 X131.074 Y97.115 E5.53234
G1 X132.259 Y97.220 E5.69295
G1 X133.623 Y97.288 E5.87732
G1 X134.426 Y97.296 E5.98573
G1 X133.899 Y96.640 E6.09932
G1 X133.182 Y95.822 E6.24617
G1 X132.446 Y95.054 E6.38977
G1 X131.678 Y94.318 E6.53338
G1 X130.860 Y93.601 E6.68022
G1 X130.016 Y92.923 E6.82638
G1 X129.151 Y92.289 E6.97116
G1 X128.262 Y91.696 E7.11542
G1 X127.343 Y91.138 E7.26057
G1 X126.388 Y90.613 E7.40769
G1 X125.418 Y90.135 E7.55368
G1 X124.449 Y89.708 E7.69663
G1 X123.442 Y89.318 E7.84241
G1 X122.543 Y89.012 E7.97062
G0 F9000 X121.984 Y88.374
G1 F1200 X122.830 Y93.628 E8.68904
G1 X122.898 Y93.926 E8.73031
G1 X122.954 Y94.101 E8.75511
G1 X123.022 Y94.268 E8.77945
G1 X123.102 Y94.424 E8.80312
G1 X123.192 Y94.570 E8.82627
G1 X123.315 Y94.734 E8.85395
G1 X123.535 Y94.982 E8.89870
G1 X123.600 Y95.047 E8.91111
G1 X123.720 Y95.156 E8.93300
G1 X123.850 Y95.264 E8.95582
G1 X124.022 Y95.396 E8.98509
G1 X124.239 Y95.548 E9.02085
G1 X124.464 Y95.692 E9.05692
G1 X124.780 Y95.874 E9.10615
G1 X125.079 Y96.031 E9.15174
G1 X125.412 Y96.189 E9.20150
G1 X125.819 Y96.363 E9.26125
G1 X126.292 Y96.544 E9.32962
G1 X126.848 Y96.732 E9.40886
G1 X127.439 Y96.905 E9.49199
G1 X128.134 Y97.081 E9.58878
G1 X129.038 Y97.271 E9.71348
G1 X129.960 Y97.426 E9.83970
G1 X131.028 Y97.562 E9.98504
G1 X132.250 Y97.671 E10.15067
G1 X133.594 Y97.737 E10.33233
G1 X135.237 Y97.755 E10.55415
G1 X135.332 Y97.752 E10.56698
G1 X134.931 Y97.206 E10.65843
G1 X134.248 Y96.356 E10.80564
G1 X133.516 Y95.520 E10.95564
G1 X132.764 Y94.736 E11.10230
G1 X131.974 Y93.979 E11.25001
G1 X131.144 Y93.252 E11.39897
G1 X130.294 Y92.569 E11.54617
G1 X129.422 Y91.929 E11.69220
G1 X128.490 Y91.308 E11.84339
G1 X127.555 Y90.740 E11.99108
G1 X126.603 Y90.217 E12.13772
G1 X125.616 Y89.730 E12.28630
G1 X124.610 Y89.288 E12.43464
G1 X123.607 Y88.899 E12.57987
G1 X122.543 Y88.537 E12.73160
G1 X121.984 Y88.374 E12.81020
G0 F9000 X121.429 Y87.753
G1 F1200 X122.390 Y93.723 E13.62653
G1 X122.463 Y94.041 E13.67058
G1 X122.532 Y94.262 E13.70183
G1 X122.610 Y94.453 E13.72968
G1 X122.705 Y94.637 E13.75764
G1 X122.825 Y94.830 E13.78832
G1 X122.967 Y95.021 E13.82045
G1 X123.206 Y95.291 E13.86913
G1 X123.288 Y95.372 E13.88469
G1 X123.401 Y95.475 E13.90533
G1 X123.581 Y95.625 E13.93696
G1 X123.761 Y95.763 E13.96758
G1 X123.978 Y95.915 E14.00335
G1 X124.242 Y96.083 E14.04559
G1 X124.566 Y96.271 E14.09616
G1 X124.857 Y96.423 E14.14048
G1 X125.243 Y96.607 E14.19821
G1 X125.648 Y96.779 E14.25761
G1 X126.129 Y96.964 E14.32718
G1 X126.714 Y97.162 E14.41056
G1 X127.312 Y97.336 E14.49464
G1 X128.057 Y97.525 E14.59840
G1 X128.944 Y97.712 E14.72078
G1 X129.877 Y97.868 E14.84848
G1 X130.983 Y98.010 E14.99902
G1 X132.213 Y98.119 E15.16572
G1 X133.592 Y98.187 E15.35211
G1 X135.245 Y98.204 E15.57527
G1 X136.178 Y98.176 E15.70129
G1 X135.948 Y97.832 E15.75715
G1 X135.278 Y96.919 E15.91003
G1 X134.587 Y96.058 E16.05907
G1 X133.861 Y95.231 E16.20763
G1 X133.083 Y94.417 E16.35964
G1 X132.269 Y93.639 E16.51165
G1 X131.442 Y92.913 E16.66022
G1 X130.572 Y92.215 E16.81079
G1 X129.668 Y91.552 E16.96214
G1 X128.735 Y90.929 E17.11359
G1 X127.787 Y90.354 E17.26327
G1 X126.817 Y89.821 E17.41269
G1 X125.804 Y89.321 E17.56520
G1 X124.791 Y88.876 E17.71456
G1 X123.732 Y88.464 E17.86797
G1 X122.699 Y88.114 E18.01521
G1 X121.626 Y87.801 E18.16610
G1 X121.429 Y87.753 E18.19348
G0 F9000 X120.939 Y87.540
G1 F1200 X121.946 Y93.800 E19.04944
G1 X122.027 Y94.157 E19.09886
G1 X122.107 Y94.408 E19.13442
G1 X122.202 Y94.641 E19.16839
G1 X122.318 Y94.868 E19.20281
G1 X122.450 Y95.080 E19.23652
G1 X122.610 Y95.296 E19.27281
G1 X122.886 Y95.607 E19.32894
G1 X122.976 Y95.695 E19.34594
G1 X123.126 Y95.832 E19.37336
G1 X123.300 Y95.977 E19.40394
G1 X123.495 Y96.127 E19.43715
G1 X123.732 Y96.293 E19.47621
G1 X124.012 Y96.471 E19.52101
G1 X124.323 Y96.651 E19.56952
G1 X124.677 Y96.836 E19.62344
G1 X125.045 Y97.011 E19.67845
G1 X125.478 Y97.195 E19.74196
G1 X125.993 Y97.393 E19.81645
G1 X126.576 Y97.590 E19.89953
G1 X127.191 Y97.770 E19.98604
G1 X127.946 Y97.961 E20.09117
G1 X128.852 Y98.151 E20.21614
G1 X129.849 Y98.319 E20.35263
G1 X130.913 Y98.455 E20.49744
G1 X132.176 Y98.568 E20.66863
G1 X133.591 Y98.637 E20.85988
G1 X135.254 Y98.654 E21.08440
G1 X136.929 Y98.604 E21.31062
G1 X136.996 Y98.599 E21.31969
G1 X136.941 Y98.510 E21.33382
G1 X136.315 Y97.571 E21.48617
G1 X135.650 Y96.664 E21.63800
G1 X134.934 Y95.773 E21.79231
G1 X134.174 Y94.906 E21.94796
G1 X133.401 Y94.099 E22.09882
G1 X132.594 Y93.326 E22.24968
G1 X131.727 Y92.566 E22.40533
G1 X130.836 Y91.850 E22.55964
G1 X129.929 Y91.185 E22.71147
G1 X128.990 Y90.559 E22.86382
G1 X127.999 Y89.957 E23.02036
G1 X127.014 Y89.416 E23.17207
G1 X125.993 Y88.913 E23.32572
G1 X124.961 Y88.458 E23.47798
G1 X123.897 Y88.045 E23.63206
G1 X122.835 Y87.685 E23.78345
G1 X121.724 Y87.361 E23.93968
G1 X120.646 Y87.097 E24.08951
G1 X119.520 Y86.873 E24.24450
G1 X118.384 Y86.698 E24.39967
G1 X117.273 Y86.576 E24.55055
G1 X116.131 Y86.502 E24.70505
G1 X115.000 Y86.476 E24.85777
G1 X113.869 Y86.502 E25.01050
G1 X112.727 Y86.576 E25.16499
G1 X111.616 Y86.698 E25.31588
G1 X110.480 Y86.873 E25.47105
G1 X109.354 Y87.097 E25.62604
G1 X108.276 Y87.361 E25.77587
G1 X107.165 Y87.685 E25.93210
G1 X106.103 Y88.045 E26.08348
G1 X105.039 Y88.458 E26.23756
G1 X104.007 Y88.913 E26.38982
G1 X102.986 Y89.416 E26.54348
G1 X102.001 Y89.957 E26.69519
G1 X101.010 Y90.559 E26.85172
G1 X100.071 Y91.185 E27.00408
G1 X99.164 Y91.850 E27.15591
G1 X98.273 Y92.566 E27.31022
G1 X97.406 Y93.326 E27.46587
G1 X96.599 Y94.099 E27.61673
G1 X95.826 Y94.906 E27.76759
G1 X95.066 Y95.773 E27.92323
G1 X94.350 Y96.664 E28.07755
G1 X93.685 Y97.571 E28.22938
G1 X93.059 Y98.510 E28.38173
G1 X93.005 Y98.598 E28.39567
G1 X94.769 Y98.655 E28.63393
G1 X96.354 Y98.641 E28.84791
G1 X97.692 Y98.578 E29.02874
G1 X98.982 Y98.468 E29.20353
G1 X100.090 Y98.329 E29.35428
G1 X101.056 Y98.170 E29.48644
G1 X101.981 Y97.979 E29.61395
G1 X102.743 Y97.789 E29.71997
G1 X103.393 Y97.600 E29.81136
G1 X103.978 Y97.404 E29.89465
G1 X104.463 Y97.220 E29.96467
G1 X104.919 Y97.028 E30.03147
G1 X105.301 Y96.847 E30.08853
G1 X105.647 Y96.668 E30.14113
G1 X105.960 Y96.488 E30.18987
G1 X106.238 Y96.312 E30.23429
G1 X106.477 Y96.147 E30.27350
G1 X106.700 Y95.976 E30.31143
G1 X106.862 Y95.842 E30.33981
G1 X107.026 Y95.694 E30.36964
G1 X107.113 Y95.608 E30.38615
G1 X107.372 Y95.316 E30.43884
G1 X107.546 Y95.086 E30.47778
G1 X107.678 Y94.874 E30.51149
G1 X107.791 Y94.655 E30.54476
G1 X107.885 Y94.427 E30.57806
G1 X107.972 Y94.157 E30.61635
G1 X108.045 Y93.840 E30.66027
G1 X109.035 Y87.558 E31.51880
G1 X120.939 Y87.540 E33.12584
G0 F9000 X120.556 Y87.990
G1 F1200 X121.503 Y93.878 E33.93094
G1 X121.595 Y94.284 E33.98714
G1 X121.682 Y94.558 E34.02595
G1 X121.796 Y94.836 E34.06651
G1 X121.924 Y95.087 E34.10455
G1 X122.074 Y95.328 E34.14287
G1 X122.268 Y95.589 E34.18677
G1 X122.550 Y95.907 E34.24415
G1 X122.662 Y96.018 E34.26544
G1 X122.840 Y96.180 E34.29793
G1 X123.019 Y96.329 E34.32937
G1 X123.218 Y96.482 E34.36326
G1 X123.487 Y96.670 E34.40757
G1 X123.773 Y96.852 E34.45333
G1 X124.119 Y97.052 E34.50728
G1 X124.476 Y97.239 E34.56169
G1 X124.858 Y97.421 E34.61881
G1 X125.307 Y97.612 E34.68468
G1 X125.839 Y97.816 E34.76160
G1 X126.449 Y98.022 E34.84852
G1 X127.082 Y98.207 E34.93755
G1 X127.846 Y98.401 E35.04397
G1 X128.758 Y98.592 E35.16976
G1 X129.766 Y98.762 E35.30776
G1 X130.894 Y98.906 E35.46127
G1 X132.139 Y99.017 E35.63002
G1 X133.564 Y99.087 E35.82262
G1 X135.262 Y99.105 E36.05187
G1 X136.946 Y99.054 E36.27931
G1 X137.765 Y98.998 E36.39013
G1 X137.316 Y98.259 E36.50687
G1 X136.685 Y97.313 E36.66038
G1 X136.018 Y96.405 E36.81248
G1 X135.263 Y95.464 E36.97535
G1 X134.520 Y94.616 E37.12756
G1 X133.719 Y93.781 E37.28376
G1 X132.884 Y92.980 E37.43997
G1 X132.036 Y92.237 E37.59217
G1 X131.092 Y91.479 E37.75561
G1 X130.187 Y90.815 E37.90715
G1 X129.236 Y90.181 E38.06144
G1 X128.231 Y89.571 E38.22016
G1 X127.218 Y89.015 E38.37616
G1 X126.191 Y88.508 E38.53078
G1 X125.142 Y88.046 E38.68552
G1 X124.049 Y87.622 E38.84378
G1 X122.963 Y87.253 E38.99863
G1 X121.842 Y86.926 E39.15627
G1 X120.753 Y86.660 E39.30761
G1 X119.584 Y86.427 E39.46853
G1 X118.454 Y86.253 E39.62287
G1 X117.306 Y86.128 E39.77877
G1 X116.146 Y86.052 E39.93570
G1 X115.000 Y86.026 E40.09045
G1 X113.854 Y86.052 E40.24520
G1 X112.694 Y86.128 E40.40214
G1 X111.546 Y86.253 E40.55804
G1 X110.416 Y86.427 E40.71238
G1 X109.247 Y86.660 E40.87330
G1 X108.158 Y86.926 E41.02464
G1 X107.037 Y87.253 E41.18228
G1 X105.951 Y87.622 E41.33712
G1 X104.858 Y88.046 E41.49539
G1 X103.809 Y88.508 E41.65013
G1 X102.782 Y89.015 E41.80475
G1 X101.769 Y89.571 E41.96075
G1 X100.764 Y90.181 E42.11946
G1 X99.813 Y90.815 E42.27376
G1 X98.908 Y91.479 E42.42530
G1 X97.964 Y92.237 E42.58874
G1 X97.116 Y92.980 E42.74094
G1 X96.281 Y93.781 E42.89715
G1 X95.480 Y94.616 E43.05335
G1 X94.737 Y95.464 E43.20556
G1 X93.982 Y96.405 E43.36843
G1 X93.315 Y97.313 E43.52053
G1 X92.684 Y98.259 E43.67404
G1 X92.236 Y98.998 E43.79071
G1 X92.892 Y99.044 E43.87948
G1 X94.759 Y99.105 E44.13166
G1 X96.354 Y99.092 E44.34700
G1 X97.750 Y99.025 E44.53567
G1 X99.001 Y98.918 E44.70517
G1 X100.166 Y98.773 E44.86366
G1 X101.123 Y98.615 E44.99461
G1 X102.107 Y98.411 E45.13027
G1 X102.850 Y98.226 E45.23364
G1 X103.534 Y98.027 E45.32981
G1 X104.101 Y97.838 E45.41049
G1 X104.654 Y97.628 E45.49035
G1 X105.102 Y97.439 E45.55599
G1 X105.489 Y97.256 E45.61378
G1 X105.868 Y97.060 E45.67138
G1 X106.197 Y96.871 E45.72261
G1 X106.486 Y96.688 E45.76879
G1 X106.747 Y96.507 E45.81166
G1 X106.980 Y96.329 E45.85125
G1 X107.159 Y96.180 E45.88269
G1 X107.325 Y96.030 E45.91289
G1 X107.440 Y95.917 E45.93466
G1 X107.727 Y95.594 E45.99299
G1 X107.912 Y95.349 E46.03444
G1 X108.070 Y95.095 E46.07482
G1 X108.202 Y94.840 E46.11358
G1 X108.309 Y94.580 E46.15154
G1 X108.407 Y94.274 E46.19492
G1 X108.487 Y93.926 E46.24312
G1 X109.420 Y88.008 E47.05192
G1 X120.556 Y87.990 E48.55528
G0 F9000 X120.172 Y88.441
G1 F1200 X121.063 Y93.974 E49.31186
G1 X121.159 Y94.397 E49.37042
G1 X121.261 Y94.718 E49.41589
G1 X121.386 Y95.024 E49.46051
G1 X121.527 Y95.300 E49.50235
G1 X121.706 Y95.588 E49.54813
G1 X121.917 Y95.871 E49.59578
G1 X122.222 Y96.215 E49.65785
G1 X122.360 Y96.352 E49.68410
G1 X122.544 Y96.519 E49.71765
G1 X122.738 Y96.681 E49.75177
G1 X122.953 Y96.845 E49.78827
G1 X123.226 Y97.036 E49.83325
G1 X123.551 Y97.244 E49.88534
G1 X123.887 Y97.438 E49.93772
G1 X124.275 Y97.641 E49.99684
G1 X124.689 Y97.838 E50.05873
G1 X125.127 Y98.024 E50.12297
G1 X125.685 Y98.239 E50.20370
G1 X126.314 Y98.452 E50.29335
G1 X126.961 Y98.641 E50.38435
G1 X127.735 Y98.837 E50.49213
G1 X128.689 Y99.037 E50.62372
G1 X129.691 Y99.205 E50.76088
G1 X130.846 Y99.354 E50.91810
G1 X132.102 Y99.465 E51.08832
G1 X133.563 Y99.537 E51.28580
G1 X135.271 Y99.555 E51.51639
G1 X136.964 Y99.504 E51.74505
G1 X138.513 Y99.398 E51.95465
G1 X138.311 Y99.029 E52.01144
G1 X137.714 Y98.047 E52.16659
G1 X137.054 Y97.057 E52.32721
G1 X136.363 Y96.115 E52.48493
G1 X135.622 Y95.192 E52.64472
G1 X134.843 Y94.304 E52.80419
G1 X134.038 Y93.462 E52.96145
G1 X133.196 Y92.657 E53.11872
G1 X132.308 Y91.878 E53.27819
G1 X131.385 Y91.137 E53.43798
G1 X130.433 Y90.439 E53.59734
G1 X129.453 Y89.786 E53.75632
G1 X128.471 Y89.189 E53.91147
G1 X127.433 Y88.620 E54.07127
G1 X126.369 Y88.095 E54.23144
G1 X125.311 Y87.629 E54.38752
G1 X124.206 Y87.200 E54.54754
G1 X123.098 Y86.824 E54.70550
G1 X121.966 Y86.494 E54.86468
G1 X120.828 Y86.215 E55.02286
G1 X119.670 Y85.985 E55.18224
G1 X118.527 Y85.809 E55.33836
G1 X117.339 Y85.679 E55.49970
G1 X116.162 Y85.602 E55.65894
G1 X115.000 Y85.576 E55.81585
G1 X113.838 Y85.602 E55.97276
G1 X112.661 Y85.679 E56.13199
G1 X111.473 Y85.809 E56.29333
G1 X110.330 Y85.985 E56.44945
G1 X109.172 Y86.215 E56.60883
G1 X108.034 Y86.494 E56.76701
G1 X106.902 Y86.824 E56.92620
G1 X105.794 Y87.200 E57.08415
G1 X104.689 Y87.629 E57.24418
G1 X103.631 Y88.095 E57.40025
G1 X102.567 Y88.620 E57.56042
G1 X101.529 Y89.189 E57.72022
G1 X100.547 Y89.786 E57.87537
G1 X99.567 Y90.439 E58.03435
G1 X98.615 Y91.137 E58.19371
G1 X97.692 Y91.878 E58.35351
G1 X96.804 Y92.657 E58.51298
G1 X95.962 Y93.462 E58.67024
G1 X95.157 Y94.304 E58.82750
G1 X94.378 Y95.192 E58.98697
G1 X93.637 Y96.115 E59.14676
G1 X92.946 Y97.057 E59.30448
G1 X92.286 Y98.047 E59.46510
G1 X91.689 Y99.029 E59.62025
G1 X91.488 Y99.396 E59.67674
G1 X92.870 Y99.494 E59.86378
G1 X94.772 Y99.555 E60.12068
G1 X96.379 Y99.541 E60.33763
G1 X97.758 Y99.476 E60.52401
G1 X99.068 Y99.364 E60.70150
G1 X100.217 Y99.220 E60.85783
G1 X101.218 Y99.055 E60.99479
G1 X102.181 Y98.856 E61.12754
G1 X102.975 Y98.658 E61.23801
G1 X103.682 Y98.453 E61.33739
G1 X104.254 Y98.261 E61.41884
G1 X104.822 Y98.046 E61.50083
G1 X105.278 Y97.854 E61.56763
G1 X105.709 Y97.650 E61.63200
G1 X106.068 Y97.464 E61.68658
G1 X106.418 Y97.263 E61.74107
G1 X106.756 Y97.049 E61.79508
G1 X107.007 Y96.875 E61.83631
G1 X107.248 Y96.691 E61.87724
G1 X107.455 Y96.519 E61.91357
G1 X107.648 Y96.344 E61.94875
G1 X107.766 Y96.228 E61.97108
G1 X108.073 Y95.883 E62.03343
G1 X108.283 Y95.603 E62.08068
G1 X108.464 Y95.315 E62.12660
G1 X108.609 Y95.034 E62.16929
G1 X108.729 Y94.743 E62.21178
G1 X108.841 Y94.394 E62.26126
G1 X108.929 Y94.012 E62.31418
G1 X109.804 Y88.457 E63.07336
G1 X120.172 Y88.441 E64.47304
G0 F9000 X119.789 Y88.891
G1 F1200 X120.623 Y94.069 E65.18108
G1 X120.724 Y94.513 E65.24255
G1 X120.837 Y94.869 E65.29297
G1 X120.976 Y95.209 E65.34256
G1 X121.139 Y95.527 E65.39080
G1 X121.331 Y95.837 E65.44003
G1 X121.569 Y96.157 E65.49386
G1 X121.902 Y96.532 E65.56157
G1 X122.043 Y96.672 E65.58839
G1 X122.247 Y96.858 E65.62566
G1 X122.455 Y97.031 E65.66218
G1 X122.691 Y97.212 E65.70234
G1 X122.981 Y97.414 E65.75005
G1 X123.312 Y97.625 E65.80304
G1 X123.673 Y97.834 E65.85935
G1 X124.074 Y98.044 E65.92046
G1 X124.491 Y98.243 E65.98284
G1 X124.957 Y98.441 E66.05119
G1 X125.549 Y98.668 E66.13679
G1 X126.177 Y98.880 E66.22627
G1 X126.834 Y99.072 E66.31867
G1 X127.635 Y99.275 E66.43022
